_includes/icons/color-lighthouse.svg

<svg fill="#666" height="50" viewBox="0 0 48 48" width="50" xmlns="http://www.w3.org/2000/svg"><path d="m24 44h-18l5-34h8z" fill="#cfd8dc"/><g fill="#ff3d00"><path d="m10.410156 14-1.175781 8h11.53125l-1.175781-8z"/><path d="m22.972656 37-1.179687-8h-13.585938l-1.179687 8z"/><path d="m12 6h6v6h-6z"/></g><path d="m42 14-24-4v-2l24-3z" fill="#ffc107"/><path d="m12 6h6l-3-2z" fill="#d32f2f"/><path d="m10.167969 16h9.664062l-.277343-2h-9.109375z" fill="#d32f2f"/><g fill="#455a64"><path d="m9 10h12v4h-12z"/><path d="m17 28v-3c0-1.105469-.894531-2-2-2s-2 .894531-2 2v3z"/></g></svg>

<svg xmlns="http://www.w3.org/2000/svg" viewBox="0 0 48 48" width="50" height="50" fill="#666"><path d="M 24 44 L 6 44 L 11 10 L 19 10 Z" fill="#cfd8dc"/><path d="M 10.410156 14 L 9.234375 22 L 20.765625 22 L 19.589844 14 Z" fill="#ff3d00"/><path d="M 22.972656 37 L 21.792969 29 L 8.207031 29 L 7.027344 37 Z" fill="#ff3d00"/><path d="M 12 6 L 18 6 L 18 12 L 12 12 Z" fill="#ff3d00"/><path d="M 42 14 L 18 10 L 18 8 L 42 5 Z" fill="#ffc107"/><path d="M 12 6 L 18 6 L 15 4 Z" fill="#d32f2f"/><path d="M 10.167969 16 L 19.832031 16 L 19.554688 14 L 10.445313 14 Z" fill="#d32f2f"/><path d="M 9 10 L 21 10 L 21 14 L 9 14 Z" fill="#455a64"/><path d="M 17 28 L 17 25 C 17 23.894531 16.105469 23 15 23 C 13.894531 23 13 23.894531 13 25 L 13 28 Z" fill="#455a64"/></svg>
